svgs/sharp-light/gamepad.svg

<svg xmlns="http://www.w3.org/2000/svg" viewBox="0 0 640 512"><!--! Font Awesome Pro 6.6.0 by @fontawesome - https://fontawesome.com License - https://fontawesome.com/license (Commercial License) Copyright 2024 Fonticons, Inc. --><path d="M32 96l0 320 576 0 0-320L32 96zM0 64l32 0 576 0 32 0 0 32 0 320 0 32-32 0L32 448 0 448l0-32L0 96 0 64zM208 192l0 48 48 0 16 0 0 32-16 0-48 0 0 48 0 16-32 0 0-16 0-48-48 0-16 0 0-32 16 0 48 0 0-48 0-16 32 0 0 16zM408 304a24 24 0 1 1 48 0 24 24 0 1 1 -48 0zm88-120a24 24 0 1 1 0 48 24 24 0 1 1 0-48z"/></svg>

<svg xmlns="http://www.w3.org/2000/svg" viewBox="0 0 640 512"><!--! Font Awesome Pro 6.4.0 by @fontawesome - https://fontawesome.com License - https://fontawesome.com/license (Commercial License) Copyright 2023 Fonticons, Inc. --><path d="M32 96V416H608V96H32zM0 64H32 608h32V96 416v32H608 32 0V416 96 64zM208 192v48h48 16v32H256 208v48 16H176V320 272H128 112V240h16 48V192 176h32v16zM408 304a24 24 0 1 1 48 0 24 24 0 1 1 -48 0zm88-120a24 24 0 1 1 0 48 24 24 0 1 1 0-48z"/></svg>
